X: 38757
T: Strop The Razor
R: jig
M: 6/8
K: Gmajor
|:DGG BAG|AFD FDC|DGG BAG|Add cAG|
DGG BAG|AFD D2E|=FDE F2G|Add cAG:|
K:Gmix
|:Ade f2g|a<ag f2d|cAG FGc|Add cAG|
Ade f2g|a<ag ^f2d|cAG ^FGA|Add cAG:|

